assets/offering/placeholder.svg

<svg width="270" height="180" viewBox="0 0 270 180" fill="none" xmlns="http://www.w3.org/2000/svg">
<path d="M0 12.8C0 8.31958 0 6.07937 0.871948 4.36808C1.63893 2.86278 2.86278 1.63893 4.36808 0.871948C6.07937 0 8.31958 0 12.8 0H257.2C261.68 0 263.921 0 265.632 0.871948C267.137 1.63893 268.361 2.86278 269.128 4.36808C270 6.07937 270 8.31958 270 12.8V167.2C270 171.68 270 173.921 269.128 175.632C268.361 177.137 267.137 178.361 265.632 179.128C263.921 180 261.68 180 257.2 180H12.8C8.31958 180 6.07937 180 4.36808 179.128C2.86278 178.361 1.63893 177.137 0.871948 175.632C0 173.921 0 171.68 0 167.2V12.8Z" fill="#E9ECEF"/>
</svg>

<svg width="270" height="180" viewBox="0 0 270 180" fill="none" xmlns="http://www.w3.org/2000/svg"><path d="M0 12.8c0-4.48 0-6.72.872-8.432A8 8 0 014.368.872C6.08 0 8.32 0 12.8 0h244.4c4.48 0 6.721 0 8.432.872a8.001 8.001 0 013.496 3.496C270 6.08 270 8.32 270 12.8v154.4c0 4.48 0 6.721-.872 8.432a8.003 8.003 0 01-3.496 3.496c-1.711.872-3.952.872-8.432.872H12.8c-4.48 0-6.72 0-8.432-.872a8.001 8.001 0 01-3.496-3.496C0 173.921 0 171.68 0 167.2V12.8z" fill="#E9ECEF"/></svg>
